X: 14863
T: Garrett Barry's
R: jig
M: 6/8
K: Dmixolydian
A|"D" DEF GFG|"Am" AGE "C" c2 A|"D" dcA d2 e|"D" fed "C" cAG|
"D" FEF GFG|"Am" AGE cde|"C" dcA "G" GEA|"D" DED D2:|
A|"D" dcA d2 e|"D" fed "Am" efe|"C" dcA c2 d|"Am" egd "C" ecA|
"D" dcA d2 e|"D" fed "Am" efe|"C" dcA "G" GEA|"D" DED D2:|

